client/public/assets/icons/custom/custom75.svg

<?xml version="1.0"?><svg xmlns="http://www.w3.org/2000/svg" width="100" height="100" viewBox="0 0 100 100"><g fill="#fff"><path d="m50 20c-1.7 0-3 1.3-3 3v54c0 1.7 1.3 3 3 3 16.5 0 30-13.5 30-30s-13.5-30-30-30z m23.8 27h-7.9c-0.3-7.1-1.9-13.3-4.3-18 6.6 3.7 11.2 10.3 12.2 18z m-20.8 25.7v-19.7h6.9c-0.5 9.4-3.5 16.8-6.9 19.7z m0-25.7v-19.7c3.4 2.9 6.4 10.3 6.9 19.7h-6.9z m8.6 24c2.4-4.7 3.9-10.9 4.3-18h7.9c-1 7.7-5.6 14.3-12.2 18z m-28.1-31.1c0.8 0.6 2 0.5 2.7-0.3l5.5-6.2c0.7-0.8 0.7-2-0.1-2.7l-5.5-5.5c-0.7-0.7-1.7-0.8-2.5-0.3-0.4 0.2-0.7 0.5-1.1 0.7-7.5 5.4-12.5 14.3-12.5 24.4 0 10.1 5 19 12.5 24.4 0.4 0.3 0.7 0.5 1.1 0.7 0.8 0.5 1.8 0.4 2.5-0.3l5.5-5.5c0.7-0.7 0.8-2 0.1-2.7l-5.5-6.2c-0.7-0.8-1.9-0.9-2.7-0.3l-2.1 1.6c-2.2-3.4-3.4-7.4-3.4-11.7s1.2-8.3 3.4-11.7l2.1 1.6z"></path></g></svg>

<?xml version="1.0" encoding="utf-8"?>
<!-- Generator: Adobe Illustrator 16.0.0, SVG Export Plug-In . SVG Version: 6.00 Build 0)  -->
<!DOCTYPE svg PUBLIC "-//W3C//DTD SVG 1.1//EN" "http://www.w3.org/Graphics/SVG/1.1/DTD/svg11.dtd">
<svg version="1.1" id="Layer_1" xmlns="http://www.w3.org/2000/svg" xmlns:xlink="http://www.w3.org/1999/xlink" x="0px" y="0px"
	 width="100px" height="100px" viewBox="0 0 100 100" enable-background="new 0 0 100 100" xml:space="preserve">
<g>
	<path fill="#FFFFFF" d="M50,20c-1.7,0-3,1.3-3,3v54c0,1.7,1.3,3,3,3c16.5,0,30-13.5,30-30S66.5,20,50,20z M73.8,47H65.9
		C65.6,39.9,64,33.7,61.6,29C68.2,32.7,72.8,39.3,73.8,47z M53,72.7V53h6.9C59.4,62.4,56.4,69.8,53,72.7z M53,47V27.3
		c3.4,2.9,6.4,10.3,6.9,19.7H53z M61.6,71c2.4-4.7,3.9-10.9,4.301-18H73.8C72.8,60.7,68.2,67.3,61.6,71z"/>
	<path fill="#FFFFFF" d="M33.5,39.9c0.8,0.6,2,0.5,2.7-0.3l5.5-6.2c0.7-0.8,0.7-2-0.1-2.7l-5.5-5.5c-0.7-0.7-1.7-0.8-2.5-0.3
		c-0.4,0.2-0.7,0.5-1.1,0.7C25,31,20,39.9,20,50c0,10.1,5,19,12.5,24.4c0.4,0.3,0.7,0.5,1.1,0.699c0.8,0.5,1.8,0.4,2.5-0.3l5.5-5.5
		c0.7-0.7,0.8-2,0.1-2.7L36.2,60.4c-0.7-0.801-1.9-0.9-2.7-0.301L31.4,61.7C29.2,58.3,28,54.3,28,50s1.2-8.3,3.4-11.7L33.5,39.9z"/>
</g>
</svg>
